icons4/hikvision.svg

<svg xmlns="http://www.w3.org/2000/svg" width="1544" height="536" baseProfile="tiny-ps" version="1.2"><path fill-rule="evenodd" d="M614.42 535.16 810.93 2.95h159.61L774.47 535.16zM472.15 207.65 547.73 2.5h159.61L523.28 502.23s0 .45-.44.45c-7.56 18.69-25.35 31.59-46.69 32.04H351.23l93.8-254.54H255.19l-93.8 254.54H1.78L197.84 2.5h159.61l-75.58 205.15zM1424.02 2.5h119.15l-266.31 204.7 168.94 327.52h-135.6c.45 0 .89 0 1.34-.45-20.9 1.34-40.02-10.68-48.91-28.48 0 0 0-.44-.44-.44v.44l-105.81-205.58-40.02 30.7-75.13 204.25H881.62L1077.68 2.95h159.61l-73.8 199.8z" style="fill:#d71820"/></svg>

<svg version="1.2" baseProfile="tiny-ps" xmlns="http://www.w3.org/2000/svg" viewBox="0 0 1544 536" width="1544" height="536">
	<title>Hikvision Logo-R-svg</title>
	<style>
		tspan { white-space:pre }
		.shp0 { fill: #d71820 } 
	</style>
	<g id="h5">
		<g id="Hikvision-Logo-R">
			<g id="分组">
				<path id="形状" fill-rule="evenodd" class="shp0" d="M614.42 535.16L810.93 2.95L970.54 2.95L774.47 535.16C721.12 535.16 667.77 535.16 614.42 535.16ZM472.15 207.65L547.73 2.5L707.34 2.5L523.28 502.23C523.28 502.23 523.28 502.68 522.84 502.68C515.28 521.37 497.49 534.27 476.15 534.72C434.36 534.72 393.02 534.72 351.23 534.72L445.03 280.18L255.19 280.18L161.39 534.72C108.04 534.72 55.13 534.72 1.78 534.72L197.84 2.5L357.45 2.5L281.87 207.65L472.15 207.65ZM1424.02 2.5L1543.17 2.5L1276.86 207.2L1445.8 534.72L1310.2 534.72C1310.65 534.72 1311.09 534.72 1311.54 534.27C1290.64 535.61 1271.52 523.59 1262.63 505.79C1262.63 505.79 1262.63 505.35 1262.19 505.35L1262.19 505.79L1156.38 300.21L1116.36 330.91L1041.23 535.16C987.88 535.16 934.53 535.16 881.62 535.16L1077.68 2.95L1237.29 2.95L1163.49 202.75L1424.02 2.5Z" />
			</g>
		</g>
	</g>
</svg>
